X:231
T:Outward And Homeward Bound
M:2/4
L:1/16
Q:1/4=3D115
K:D
A2G2|\
FFF2 A2F2|E2D2 D2A2|B2G2 d2B2|B2A2 A2F2|
G2GG B2AG|F2FF F2AA|d2A2 F2D2|G2E2 C2A,2|
D3E  D2D2|(D2F2 A2)d2|B3G  A2A2|D4    ||
